X: 3240
T: Behind The Bush In The Garden
R: jig
M: 6/8
K: Adorian
M:12/8
c2A AGE c2A AGE|G2E D2E ~G3 EFG|
A2B c2d eag e2d|c2A AGE ~A3 A2B:|
c2B c2d eag e2d|cBA Bcd ~e3 G2B|
c2B c2d eag e2d|cBA AGE ~A3 A2B:|

